X:16020
T:Patchwork Polka
R:Polka
C:Iain Peterson (1934-2006)
O:Scotland
Z:Paul Hardy's Session Tunebook 2022 (see www.paulhardy.net). Creative Commons cc by-nc-sa licenced.
M:2/2
L:1/4
Q:1/2=100
K:D
de|"D"fA BA|F/2A/2A BA|fd d/2e/2f/2a/2|"Em"g2 e2|"A"ge e/2c/2c|
"A"cA B/2A/2A|gA c/2A/2A|"A7"e=f ^fa|"D"fA BA|F/2A/2A BA|"D"fd d/2e/2f/2a/2|
"G"g2 B2|gB B/2g/2g|"D"fA A/2d/2f/2a/2|"A7"g/2e/2c/2e/2 ac|"D"d2 d2||
"D"fa ^g/2a/2f/2d/2|Ad "G"BA|"D"fa ^g/2a/2f/2d/2|"A"c2 c2|eg f/2g/2e/2c/2|
"A"Ac BA|g/2A/2A a/2A/2A|"A7"e=f ^fa|"D"fa ^g/2a/2f/2d/2|"D"Ad "G"BA|
"D"fa ^g/2a/2f/2d/2|"G"B2 B2|gB B/2g/2g|"D"fA A/2d/2f/2a/2|"A7"g/2e/2c/2e/2 ac|"D"d2|]

